brandFactory_export/3.Masa/Data server_Servidor de datos_3Masa.svg

<?xml version="1.0" encoding="UTF-8"?>
<svg width="24px" height="24px" viewBox="0 0 24 24" version="1.1" xmlns="http://www.w3.org/2000/svg" xmlns:xlink="http://www.w3.org/1999/xlink">
    <title>3.Masa/Data server_Servidor de datos_3Masa</title>
    <g id="Symbols" stroke="none" stroke-width="1" fill="none" fill-rule="evenodd">
        <g id="3.Masa/Data-server_Servidor-de-datos_3Masa" fill="#5CB615" fill-rule="nonzero">
            <path d="M20.7226891,22.1815126 C21.6436975,22.1815126 22.1176471,21.7579832 22.1277311,20.9176471 L22.1243697,20.7495798 C22.1142857,20.1815126 21.8689076,19.5058824 20.7798319,19.4857143 C20.7630252,19.4857143 20.7462185,19.4957983 20.7294118,19.4957983 C20.712605,19.4957983 20.6991597,19.4857143 20.6823529,19.4857143 C19.5932773,19.5092437 19.3411765,20.1848739 19.3277311,20.7596639 L19.3277311,20.9310924 C19.3378151,21.7613445 19.8084034,22.1815126 20.7226891,22.1815126 Z M4.29243697,20.7495798 C4.2789916,20.1714286 4.0302521,19.4823529 2.90084034,19.4823529 C1.76806723,19.4823529 1.51260504,20.1781513 1.49915966,20.7596639 L1.49579832,20.9277311 L1.49579832,20.9310924 C1.50252101,21.7579832 1.97310924,22.1747899 2.88739496,22.1747899 C3.80504202,22.1747899 4.2789916,21.7478992 4.29243697,20.9109244 L4.29243697,20.7495798 L4.29243697,20.7495798 Z M23.6201681,20.7226891 L23.6235294,20.9344538 C23.6067227,22.1747899 22.8336134,23.6201681 20.7226891,23.6201681 C18.6117647,23.6201681 17.8487395,22.1815126 17.8352941,20.9478992 L17.8352941,20.7193277 C17.8621849,19.6470588 18.4537815,18.4134454 19.9831933,18.107563 L19.9831933,16.605042 L3.6302521,16.605042 L3.63697479,18.107563 C5.17310924,18.4067227 5.76470588,19.6436975 5.78487395,20.7226891 L5.78823529,20.9378151 C5.76470588,22.1781513 4.99495798,23.6235294 2.88739496,23.6235294 C0.776470588,23.6235294 0.0134453782,22.1848739 0,20.9512605 C0,20.8773109 0,20.7932773 0.00336134454,20.7226891 C0.0302521008,19.6504202 0.621848739,18.4201681 2.14453782,18.1142857 L2.13445378,15.8857143 C2.13109244,15.6941176 2.21176471,15.5092437 2.35294118,15.3747899 C2.49411765,15.2369748 2.68235294,15.1630252 2.88403361,15.1630252 L11.0319328,15.1630252 C11.0285714,15.1327731 11.0151261,15.1058824 11.0151261,15.0756303 L11.0151261,13.5462185 C10.0941176,13.4991597 9.23697479,13.3714286 8.5512605,13.1764706 C7.55294118,12.8840336 7.04537815,12.4907563 7.04537815,12.0067227 L7.04537815,9.5697479 C7.37815126,9.81176471 7.83529412,10.0201681 8.37647059,10.1815126 C9.31092437,10.4537815 10.5344538,10.6016807 11.8218487,10.6016807 C13.1159664,10.6016807 14.3394958,10.4537815 15.2672269,10.1815126 C15.7915966,10.0336134 16.2420168,9.81848739 16.5815126,9.56302521 L16.5815126,12.0033613 C16.5815126,12.487395 16.0739496,12.8806723 15.0756303,13.1731092 C14.3663866,13.3781513 13.4722689,13.5058824 12.5109244,13.5495798 L12.5109244,15.0722689 C12.5109244,15.102521 12.497479,15.1294118 12.4907563,15.1596639 L20.7327731,15.1596639 C21.1462185,15.1596639 21.4789916,15.4823529 21.4789916,15.8823529 L21.4789916,18.1109244 C23.0151261,18.410084 23.6033613,19.6436975 23.6201681,20.7226891 L23.6201681,20.7226891 Z M8.56134454,2.30588235 C7.72773109,2.06386555 7.22352941,1.73781513 7.08907563,1.36134454 C7.08907563,1.35462185 7.08907563,1.35462185 7.08571429,1.3512605 C7.22016807,0.971428571 7.72436975,0.638655462 8.5512605,0.4 C9.42857143,0.144537815 10.5882353,0.00336134454 11.8184874,0.00336134454 C13.0487395,0.00336134454 14.2084034,0.144537815 15.0789916,0.4 C15.9495798,0.65210084 16.4403361,0.988235294 16.5512605,1.38151261 C16.5512605,1.38151261 16.5445378,1.38823529 16.5445378,1.39495798 C16.3966387,1.75798319 15.8991597,2.07394958 15.0857143,2.3092437 C14.2084034,2.56470588 13.0554622,2.70588235 11.8285714,2.70588235 C10.5915966,2.70252101 9.43865546,2.56134454 8.56134454,2.30588235 L8.56134454,2.30588235 Z M8.56134454,5.9394958 C7.78151261,5.71092437 7.21680672,5.36470588 7.04537815,5.01848739 L7.04537815,2.2789916 C7.36470588,2.52773109 7.80840336,2.7394958 8.37647059,2.89747899 C9.31092437,3.1697479 10.5344538,3.31764706 11.8218487,3.31764706 C13.1092437,3.31764706 14.3294118,3.1697479 15.2672269,2.89747899 C15.8218487,2.73613445 16.2588235,2.53781513 16.5815126,2.29243697 L16.5815126,5.01176471 C16.4201681,5.30420168 15.9462185,5.68739496 15.0823529,5.9394958 C14.2117647,6.19495798 13.0521008,6.32941176 11.8252101,6.32941176 C10.5915966,6.32941176 9.43865546,6.19495798 8.56134454,5.9394958 L8.56134454,5.9394958 Z M8.56134454,9.58655462 C7.78151261,9.35798319 7.21680672,9.01848739 7.04537815,8.66554622 L7.04537815,5.91932773 C7.38487395,6.16134454 7.83529412,6.3697479 8.37647059,6.52436975 C9.31092437,6.79663866 10.5344538,6.94453782 11.8218487,6.94453782 C13.112605,6.94453782 14.3394958,6.79663866 15.2672269,6.52436975 C15.7915966,6.37647059 16.2386555,6.16470588 16.5815126,5.91260504 L16.5815126,8.65882353 C16.4201681,8.94789916 15.9462185,9.33109244 15.0823529,9.58655462 C14.2117647,9.84201681 13.0521008,9.98319328 11.8252101,9.98319328 C10.5915966,9.98319328 9.43865546,9.84201681 8.56134454,9.58655462 L8.56134454,9.58655462 Z" id="Data-server_Servidor-de-datos_3Masa"></path>
        </g>
    </g>
</svg>

<svg width="24" height="24" viewBox="0 0 24 24" xmlns="http://www.w3.org/2000/svg"><path d="M20.723 22.182c.92 0 1.395-.424 1.405-1.264l-.004-.168c-.01-.568-.255-1.244-1.344-1.264-.017 0-.034.01-.05.01-.017 0-.03-.01-.048-.01-1.089.023-1.34.699-1.354 1.274v.171c.01.83.48 1.25 1.395 1.25zM4.293 20.75c-.014-.579-.263-1.268-1.392-1.268-1.133 0-1.388.696-1.402 1.278l-.003.168v.003c.007.827.477 1.244 1.391 1.244.918 0 1.392-.427 1.405-1.264v-.161zm19.327-.027l.004.211c-.017 1.24-.79 2.686-2.901 2.686-2.111 0-2.874-1.438-2.888-2.672v-.229c.027-1.072.619-2.306 2.148-2.611v-1.503H3.63l.007 1.503c1.536.299 2.128 1.536 2.148 2.615l.003.215c-.023 1.24-.793 2.686-2.9 2.686-2.112 0-2.875-1.44-2.888-2.673 0-.074 0-.158.003-.228.027-1.073.619-2.303 2.142-2.609l-.01-2.228a.692.692 0 01.218-.511.753.753 0 01.531-.212h8.148c-.003-.03-.017-.057-.017-.087v-1.53c-.92-.047-1.778-.175-2.464-.37-.998-.292-1.506-.685-1.506-1.17V9.57c.333.242.79.45 1.331.612.935.272 2.158.42 3.446.42 1.294 0 2.517-.148 3.445-.42.525-.148.975-.364 1.315-.619v2.44c0 .484-.508.878-1.506 1.17-.71.205-1.604.333-2.565.377v1.522c0 .03-.014.057-.02.088h8.242c.413 0 .746.322.746.722v2.229c1.536.3 2.124 1.533 2.141 2.612zM8.561 2.306c-.833-.242-1.337-.568-1.472-.945 0-.006 0-.006-.003-.01C7.22.971 7.724.64 8.55.4 9.43.145 10.588.003 11.818.003s2.39.142 3.261.397c.87.252 1.361.588 1.472.982 0 0-.006.006-.006.013-.148.363-.646.679-1.46.914-.877.256-2.03.397-3.256.397-1.237-.003-2.39-.145-3.268-.4zm0 3.633c-.78-.228-1.344-.574-1.516-.92v-2.74c.32.249.763.46 1.331.618.935.273 2.158.42 3.446.42 1.287 0 2.507-.147 3.445-.42.555-.16.992-.36 1.315-.605v2.72c-.162.292-.636.675-1.5.927-.87.256-2.03.39-3.257.39-1.233 0-2.386-.134-3.264-.39zm0 3.648c-.78-.229-1.344-.569-1.516-.921V5.919c.34.242.79.45 1.331.605.935.273 2.158.42 3.446.42 1.29 0 2.517-.147 3.445-.42.525-.148.972-.36 1.315-.611v2.746c-.162.289-.636.672-1.5.928-.87.255-2.03.396-3.257.396-1.233 0-2.386-.141-3.264-.396z" fill="#5CB615" fill-rule="nonzero"/></svg>
